symbolic/32x32/apps/kodelife.svg

<svg width="32" height="32" version="1.1" xmlns="http://www.w3.org/2000/svg">
 <rect x="2" y="3" width="28" height="28" rx="1.4" ry="1.4" style="opacity:.2"/>
 <rect x="2" y="2" width="28" height="28" rx="1.4" ry="1.4" style="fill:#4f4f4f"/>
 <path d="M 3.4004,2 C 2.6248,2 2,2.6248 2,3.4004 v 1 C 2,3.6248 2.6248,3 3.4004,3 H 28.6 C 29.375,3 30,3.6248 30,4.4004 v -1 C 30,2.6248 29.375,2 28.6,2 Z" style="fill:#ffffff;opacity:.1"/>
 <path d="M 7,7 C 6.446,7 6,7.446 6,8 v 8.5 L 17,7 Z m 14,0 -8.554688,7.414062 13.248047,12.302735 C 25.881166,26.535207 26,26.283083 26,26 V 8 C 26,7.446 25.554,7 25,7 Z M 10.298828,16.273438 6,20 v 6 c 0,0.554 0.446,1 1,1 h 15 z" style="opacity:.2"/>
 <path d="m7 6c-0.554 0-1 0.446-1 1v8.5l11-9.5h-10zm14 0-8.554688 7.414062 13.248047 12.302735c0.187807-0.18159 0.306641-0.433714 0.306641-0.716797v-18c0-0.554-0.446-1-1-1h-4zm-10.701172 9.273438-4.298828 3.726562v6c0 0.554 0.446 1 1 1h15l-11.701172-10.726562z" style="fill:#ffffff"/>
</svg>

<svg width="32" height="32" xmlns="http://www.w3.org/2000/svg"><rect x="2" y="3" width="28" height="28" rx="1.4" ry="1.4" style="opacity:.2"/><rect x="2" y="2" width="28" height="28" rx="1.4" ry="1.4" style="fill:#4f4f4f"/><path d="M3.4 2C2.625 2 2 2.625 2 3.4v1C2 3.625 2.625 3 3.4 3h25.2c.775 0 1.4.625 1.4 1.4v-1c0-.775-.625-1.4-1.4-1.4z" style="fill:#fff;opacity:.1"/><path d="M7 7c-.554 0-1 .446-1 1v8.5L17 7zm14 0-8.555 7.414 13.248 12.303A.993.993 0 0 0 26 26V8c0-.554-.446-1-1-1zm-10.701 9.273L6 20v6c0 .554.446 1 1 1h15z" style="opacity:.2"/><path d="M7 6c-.554 0-1 .446-1 1v8.5L17 6H7zm14 0-8.555 7.414 13.248 12.303A.993.993 0 0 0 26 25V7c0-.554-.446-1-1-1h-4zm-10.701 9.273L6 19v6c0 .554.446 1 1 1h15L10.299 15.273z" style="fill:#fff"/></svg>
